X: 3
T: The Red-haired Lass
R: reel
M: 4/4
L: 1/8
K: Gmaj
(BA)|!segno!G2 GG G2 (BA)|GABA GET(ED)|EGGA GABd|(3efg dB T(BA)AB|
G2 GG G2 (BA)|GABA GET(ED)|EGGA GABd|egdB T(BA) A2||
d2 (gd) edgd|d2 (gd) BAAB|d2 (gd) edef|({a}g)edB T(BA)AB|
d2 (gd) edgd|d2 ({a}gd) T(BA)AB|c2 cA T(BA)Bd|(3efg dB T(BA)AB!segno!||


Tune 1716	Setting 1716

